X: 528
%
T: O She's Comical
C:Very old
O:Scotland
B:Keith Norman MacDonald : "The Skye collection of the best reels & strathspeys extant" : 1887
Z:Ralph Palmer
R:Reel
M:C
L:1/8
K:A
A | e/2e/2e (e=g) f2 fa | e2 ed cAAc | e/2e/2e (e=g) f2 fa | B2 (d/2c/2B/2A/2) (B=G)GB | e/2e/2e e=g f2 fa |
e2 ed cAAc | d2 fd c2 ac | B2 (d/2c/2B/2A/2) B=GG || B | efed c2 Ac | efed cAAc | efed c2 Ac |
B2 (d/2c/2B/2A/2) (B=G)GB | efed c2 Ac | efed cAAc | d2 fd c2 ac | B2 (d/2c/2B/2A/2) B=GG |]


